docs/images/customers/customers-facebook.svg

<svg width="117" height="23" viewBox="0 0 117 23" fill="none" xmlns="http://www.w3.org/2000/svg">
<path fill-rule="evenodd" clip-rule="evenodd" d="M115.15 19.5391C115.945 19.5391 116.578 20.167 116.578 20.9541C116.578 21.75 115.945 22.3691 115.143 22.3691C114.349 22.3691 113.704 21.75 113.704 20.9541C113.704 20.167 114.349 19.5391 115.143 19.5391H115.15ZM23.21 22.1798H19.2755L19.1079 21.2158C17.3101 22.1798 15.7071 22.3372 14.6506 22.3372C11.7635 22.3372 10.2279 20.4694 10.2279 17.8836C10.2279 14.8343 12.0203 13.7448 15.2262 13.7448H18.4868V13.0868C18.4868 11.5303 18.3046 11.074 15.8273 11.074H11.8036L12.1988 7.25354H16.6124C22.026 7.25354 23.2137 8.91614 23.2137 13.1186V22.1798H23.21ZM81.8271 16.1891C81.8271 19.3021 80.5029 22.3213 74.9599 22.3213C69.4115 22.3213 68.0618 19.3021 68.0618 16.1891V13.1823C68.0618 10.0693 69.4097 7.05013 74.9581 7.05013C80.5138 7.05013 81.8435 10.0693 81.8435 13.1841V16.1909L81.8271 16.1891ZM96.9423 16.1891C96.9423 19.3021 95.6162 22.3213 90.0751 22.3213C84.5248 22.3213 83.1751 19.3021 83.1751 16.1891V13.1823C83.1751 10.0693 84.523 7.05013 90.0732 7.05013C95.6107 7.05013 96.9404 10.0693 96.9404 13.1841V16.1909L96.9423 16.1891ZM115.143 19.762C114.506 19.762 113.977 20.2926 113.977 20.9523C113.977 21.6244 114.506 22.1515 115.15 22.1515C115.797 22.1692 116.316 21.6386 116.316 20.9665C116.316 20.312 115.797 19.7779 115.15 19.7779H115.143V19.762ZM7.0785 22.1497H2.36071V11.0775H0V7.25707H2.35889V4.96658C2.35889 1.85362 3.68861 -2.61452e-08 7.47377 -2.61452e-08H10.625V3.82044H8.65777C7.18232 3.82044 7.08396 4.35106 7.08396 5.34862L7.06575 7.25884H10.636L10.217 11.0793H7.06757V22.1515L7.0785 22.1497ZM114.872 21.7783H114.613V20.1988C114.759 20.1811 114.886 20.1635 115.087 20.1635C115.336 20.1635 115.498 20.2112 115.597 20.2802C115.695 20.3509 115.742 20.4571 115.742 20.6074C115.742 20.8143 115.604 20.9399 115.433 20.9912V21.0036C115.571 21.0284 115.669 21.1522 115.706 21.3856C115.742 21.6297 115.779 21.7252 115.804 21.7748H115.531C115.495 21.7252 115.453 21.5802 115.422 21.375C115.385 21.1716 115.276 21.0973 115.072 21.0973H114.89V21.7765L114.872 21.7783ZM114.872 20.9028H115.059C115.272 20.9028 115.453 20.8267 115.453 20.6322C115.453 20.4942 115.351 20.3562 115.059 20.3562C114.975 20.3562 114.914 20.3615 114.872 20.3686V20.9028ZM14.9475 17.8252C14.9475 18.66 15.3556 19.0934 16.2518 19.0934C17.2172 19.0934 17.7855 18.7892 18.4886 18.4743V16.8029H16.3829C15.3847 16.8029 14.9475 16.9797 14.9475 17.8234V17.8252ZM60.016 10.8635C59.0506 10.8635 58.3584 11.1642 57.6553 11.4826V18.5221C58.3293 18.584 58.7155 18.584 59.3566 18.584C61.67 18.584 61.9833 17.5581 61.9833 16.1255V12.7578C61.9833 11.7036 61.619 10.8529 60.016 10.8529V10.8635ZM74.9435 10.8635C73.3369 10.8635 72.7814 11.7125 72.7814 12.756V16.6119C72.7814 17.6731 73.3369 18.5221 74.9435 18.5221C76.5465 18.5221 77.1039 17.6731 77.1039 16.6119V12.756C77.1039 11.7019 76.5392 10.8511 74.9362 10.8511L74.9435 10.8635ZM36.5874 11.3411C34.1393 10.9342 33.4361 10.8458 32.2594 10.8458C30.1428 10.8458 29.5035 11.2933 29.5035 13.039V16.3289C29.5035 18.0711 30.141 18.5221 32.2594 18.5221C33.438 18.5221 34.1393 18.4336 36.5874 18.0268V21.7482C34.4435 22.2169 33.0463 22.339 31.866 22.339C26.7985 22.339 24.7838 19.7566 24.7838 16.0246V13.3539C24.7838 9.61478 26.7985 7.02714 31.866 7.02714C33.0463 7.02714 34.4435 7.15095 36.5874 7.61966V11.3411ZM51.3601 16.0282H42.7041V16.3289C42.7041 18.0711 43.3417 18.5221 45.4583 18.5221C47.3618 18.5221 48.5185 18.4336 50.963 18.0268V21.7482C48.6077 22.2169 47.38 22.339 45.0667 22.339C40.0028 22.339 37.9991 19.7566 37.9991 16.0246V12.9647C37.9991 9.69791 39.4928 7.02183 44.6841 7.02183C49.8846 7.02183 51.3692 9.66608 51.3692 12.9647V16.0246L51.3601 16.0282ZM90.0568 10.8635C88.4539 10.8635 87.8983 11.7125 87.8983 12.7613V16.6225C87.8983 17.6837 88.4539 18.5327 90.0568 18.5327C91.6598 18.5327 92.2245 17.6837 92.2245 16.6225V12.7596C92.2245 11.7036 91.6598 10.8529 90.0568 10.8529V10.8635ZM112.456 22.148H107.343L103.015 15.1438V22.148H98.2975V1.14083L103.015 0.380276V13.9022L107.341 7.25177H112.442L107.715 14.5035L112.438 22.1444L112.456 22.148ZM44.6714 10.4744C43.0684 10.4744 42.7041 11.3234 42.7041 12.3846V12.9736H46.6387V12.3793C46.6387 11.3358 46.2743 10.4797 44.6714 10.4797V10.4744ZM66.7047 16.0989C66.7047 19.7071 65.63 22.3425 59.1818 22.3425C56.8575 22.3425 55.4913 22.1409 52.923 21.7588V1.13729L57.6407 0.376738V7.58783C58.6608 7.21993 59.9814 7.03421 61.1836 7.03421C65.9014 7.03421 66.6847 9.08593 66.6847 12.3811V16.1131L66.7047 16.0989Z" fill="#D6DAE5"/>
</svg>

<svg width="117" height="23" fill="none" xmlns="http://www.w3.org/2000/svg"><path fill-rule="evenodd" clip-rule="evenodd" d="M115.15 19.54c.795 0 1.428.627 1.428 1.414 0 .796-.633 1.415-1.435 1.415-.794 0-1.439-.619-1.439-1.415 0-.787.645-1.415 1.439-1.415h.007Zm-91.94 2.64h-3.934l-.168-.964a9.261 9.261 0 0 1-4.457 1.121c-2.887 0-4.423-1.868-4.423-4.453 0-3.05 1.792-4.14 4.998-4.14h3.26v-.657c0-1.557-.181-2.013-2.659-2.013h-4.023l.395-3.82h4.413c5.414 0 6.602 1.662 6.602 5.865v9.06h-.004Zm58.617-5.99c0 3.112-1.324 6.131-6.867 6.131-5.548 0-6.898-3.019-6.898-6.132v-3.007c0-3.113 1.348-6.132 6.896-6.132 5.556 0 6.886 3.02 6.886 6.134v3.007l-.017-.002Zm15.115 0c0 3.112-1.326 6.131-6.867 6.131-5.55 0-6.9-3.019-6.9-6.132v-3.007c0-3.113 1.348-6.132 6.898-6.132 5.538 0 6.867 3.02 6.867 6.134v3.007l.002-.002Zm18.201 3.572a1.18 1.18 0 0 0-1.166 1.19c0 .672.529 1.2 1.173 1.2.647.017 1.166-.513 1.166-1.186 0-.654-.519-1.188-1.166-1.188h-.007v-.016ZM7.079 22.15H2.36V11.078H0v-3.82h2.359V4.966C2.359 1.854 3.689 0 7.474 0h3.151v3.82H8.658c-1.476 0-1.574.531-1.574 1.529l-.018 1.91h3.57l-.419 3.82h-3.15v11.072l.011-.001Zm107.793-.372h-.259v-1.58c.146-.017.273-.035.474-.035.249 0 .411.048.51.117.098.07.145.177.145.327 0 .207-.138.333-.309.384v.013c.138.024.236.148.273.382.036.244.073.34.098.389h-.273c-.036-.05-.078-.195-.109-.4-.037-.203-.146-.278-.35-.278h-.182v.68l-.018.001Zm0-.875h.187c.213 0 .394-.076.394-.27 0-.139-.102-.277-.394-.277-.084 0-.145.005-.187.013v.534Zm-99.924-3.078c0 .835.408 1.268 1.304 1.268.965 0 1.534-.304 2.237-.619v-1.671h-2.106c-.998 0-1.435.177-1.435 1.02v.002Zm45.068-6.961c-.965 0-1.658.3-2.36.619v7.04c.673.061 1.06.061 1.7.061 2.314 0 2.627-1.026 2.627-2.459v-3.367c0-1.054-.364-1.905-1.967-1.905v.01Zm14.928 0c-1.607 0-2.163.848-2.163 1.892v3.856c0 1.061.556 1.91 2.162 1.91 1.603 0 2.16-.849 2.16-1.91v-3.856c0-1.054-.564-1.905-2.167-1.905l.007.012Zm-38.357.477c-2.448-.407-3.15-.495-4.328-.495-2.116 0-2.756.447-2.756 2.193v3.29c0 1.742.638 2.193 2.756 2.193 1.179 0 1.88-.088 4.328-.495v3.721c-2.144.469-3.54.591-4.721.591-5.067 0-7.082-2.582-7.082-6.314v-2.671c0-3.74 2.015-6.327 7.082-6.327 1.18 0 2.578.124 4.721.593v3.721Zm14.773 4.687h-8.656v.3c0 1.743.638 2.194 2.754 2.194 1.904 0 3.06-.088 5.505-.495v3.721c-2.355.469-3.583.591-5.896.591-5.064 0-7.068-2.582-7.068-6.314v-3.06c0-3.267 1.494-5.943 6.685-5.943 5.2 0 6.685 2.644 6.685 5.943v3.06l-.009.003Zm38.697-5.164c-1.603 0-2.159.848-2.159 1.897v3.861c0 1.062.556 1.91 2.159 1.91 1.603 0 2.168-.848 2.168-1.91V12.76c0-1.056-.565-1.907-2.168-1.907v.01Zm22.399 11.284h-5.113l-4.328-7.004v7.004h-4.718V1.141l4.718-.76v13.521l4.326-6.65h5.101l-4.727 7.252 4.723 7.64.018.004ZM44.671 10.474c-1.603 0-1.967.85-1.967 1.91v.59h3.935v-.595c0-1.043-.365-1.9-1.968-1.9v-.005ZM66.705 16.1c0 3.608-1.075 6.244-7.523 6.244-2.325 0-3.69-.202-6.259-.584V1.137l4.718-.76v7.21c1.02-.367 2.34-.553 3.543-.553 4.717 0 5.5 2.052 5.5 5.347v3.732l.02-.014Z" fill="#D6DAE5"/></svg>
